X:834
T:Dublin Reel, The
R:reel
S:Dudde
H:See also #670
Z:id:hn-reel-834
M:C
L:1/8
K:G
gB~B2 gBaB | gB~B2 dBAB | gB~B2 gbag |1 fgef d2ef :|2 fgef defg ||
|: a2fd adbd | ad~d2 edBd |1 ad~d2 abag | fgef defg :|2 g2gf gbag | fgef d2ef ||
|: ~g3f gdBd | gfgd BGBd | ~g3f gbag |1 fgef d2ef :|2 fgef dBAB ||
|: GB~B2 GBAB | GB~B2 dBAB | GB~B2 Gbag |1 fgef dBAB :|2 fgef d2ef ||

